packages/dnb-ui-lib/assets/icons/pay_from.svg

<svg width="16" height="16" viewBox="0 0 16 16" fill="none" xmlns="http://www.w3.org/2000/svg">
<path fill-rule="evenodd" clip-rule="evenodd" d="M12.0662 3.01676L11.6761 1.78686L8.9457 3.01676H12.0662ZM11.1584 0.374916L5.2934 3.01676H3.54543C2.46814 3.01676 1.52271 3.85282 1.52271 4.97067V13.7961C1.52271 14.9139 2.46814 15.75 3.54543 15.75H13.7272C14.8045 15.75 15.75 14.9139 15.75 13.7961V13.4951C15.75 13.0809 15.4142 12.7451 15 12.7451C14.5858 12.7451 14.25 13.0809 14.25 13.4951V13.7961C14.25 14.008 14.0558 14.25 13.7272 14.25H3.54543C3.21691 14.25 3.02271 14.008 3.02271 13.7961V4.97067C3.02271 4.75872 3.21691 4.51676 3.54543 4.51676H5.45452H13.0909H13.7272C14.0558 4.51676 14.25 4.75872 14.25 4.97067V5.5C14.25 5.91421 14.5858 6.25 15 6.25C15.4142 6.25 15.75 5.91421 15.75 5.5V4.97067C15.75 3.85283 14.8045 3.01676 13.7272 3.01676H13.6398L13.0645 1.20252C12.8064 0.388818 11.8878 0.0463508 11.1584 0.374916ZM13.8495 7.15046C13.6565 6.95742 13.3435 6.95742 13.1505 7.15047C12.9574 7.34351 12.9574 7.65649 13.1505 7.84954L14.2399 8.939H10.6167C10.3437 8.939 10.1224 9.16031 10.1224 9.43331C10.1224 9.70632 10.3437 9.92763 10.6167 9.92763H14.2399L13.1505 11.0171C12.9574 11.2101 12.9574 11.5231 13.1505 11.7162C13.3435 11.9092 13.6565 11.9092 13.8495 11.7162L15.7829 9.78285C15.8756 9.69015 15.9276 9.56442 15.9276 9.43331C15.9276 9.30221 15.8756 9.17648 15.7829 9.08378L13.8495 7.15046Z" fill="black"/>
</svg>

<svg width="16" height="16" viewBox="0 0 16 16" fill="none" xmlns="http://www.w3.org/2000/svg"><path fill-rule="evenodd" clip-rule="evenodd" d="M12.066 3.017l-.39-1.23-2.73 1.23h3.12zM11.158.375L5.293 3.017H3.545c-1.077 0-2.022.836-2.022 1.954v8.825c0 1.118.945 1.954 2.022 1.954h10.182c1.078 0 2.023-.836 2.023-1.954v-.3a.75.75 0 00-1.5 0v.3c0 .212-.194.454-.523.454H3.545c-.328 0-.522-.242-.522-.454V4.971c0-.212.194-.454.522-.454H13.727c.329 0 .523.242.523.454V5.5a.75.75 0 001.5 0v-.53c0-1.117-.945-1.953-2.023-1.953h-.087l-.575-1.814C12.806.389 11.888.046 11.158.375zM13.85 7.15a.494.494 0 10-.7.7l1.09 1.089h-3.623a.494.494 0 000 .989h3.623l-1.09 1.09a.494.494 0 10.7.698l1.933-1.933a.494.494 0 000-.7L13.85 7.15z" fill="#000"/></svg>
